X: 16591
T: Hand Me Down The Tackle
R: reel
M: 4/4
K: Dmajor
|:dD D/D/D ADFA|dfaf gfec|dD D/D/D ADFA|BGEF GABc|
dD D/D/D ADFA|dfaf gfec|d2cd BdAF|GFEF GABc:|
d2fd Adfd|d2fd B2Bc|d2fd Adfd|BGEF GABc|
d2fd Adfd|B/c/d ef g2fg|afec dBAF|GFEF GABc|
d2fd Adfd|d2fd B2Bc|d2fd Adfd|BGEF GABd|
a2 a/a/^g afdf|gfef g2ag|faec dBAF|GFEF GABc||

